X:13
T:Polska ur Petter Dufvas notbok (Ma6-13)
R:Polska
O:Verkelbäck, Småland
B:Petter Dufvas notbok
S:Petter Dufva
N:Smus Ma6 bild 15
Z:Till abc Jonas Brunskog
M:3/4
L:1/8
K:G
G/A/B/c/ d2 g2|fe/d/ g2 d2|cd ed cB|A2 D4|
GB DF GA/G/|FE D2 d2|cB/A/ BA/G/ AG/F/|G2 G,4:|
|:B2 e2 f2|gf/e/ ^de/f/ B2|eg fe ^dB|eg fe =dB|
ef gf/e/ fe/^d/| e2 e4|gg =de dc|A2 G4|
df ed cB|A2 D4|GB DF GA/G/|FE D2 d2|cB/A/ BA/G/ AG/F/|G2 G,4:|

